X: 28035
T: Moving On Moving Off
R: jig
M: 6/8
K: Dmajor
"D" DFA "D" DFA|"G" B~dB "A" AFE|"D" DFA "D" DFA|"D" DFD "Em" E2E|
"D" DFA "D" DFA|"G" B2d "G" ~BAF|"D" d2A "G" BAF|"F#m" EFE "D" D3:|
"D" d2A "G" BAF|"D" d~ed "G" BAF|"D" d2A "G" BAF|"G" EFG "G" ABc|
"D" d2A "G" BAF|"D" dcB "G" AGF|"D" d2A "G" BAF|"F#m" EFE "D" D3|
"D" d2A "G" BAF|"D" def "G" gfe|"D" d2A "G" BAF|"G" EFG "G" ABc|
"D" d2A "G" BAF|"D" dcB "G" AGF|"D" d2A "G" BAF|"F#m" EFE "D" D3:|

